X:1
T: The Squirrel
C:
R:Jig
Q:180
K:A
M:6/8
L:1/16
|:g2|a6 A4B2|c2e2d2 c2B2A2|a6 A4B2|F2B2A2 G2F2E2|
a6 A4B2|c2e2d2 c2B2A2|F2G2A2 B2c2d2|1c2A2A2 A4:|2c2A2A2 A4e2|
|:c2A2c2 e2c2e2|f2g2a2 e2c2A2|c2A2c2 e2c2A2|G2A2B2 B2c2d2|
|1c2A2c2 e2c2e2|f2g2a2 e2c2A2|F2G2A2 B2c2d2|c2A2A2 A4e2:|
|2c2A2c2 e2c2A2|d2e2f2 f2g2a2|g2b2g2 e2f2g2|a2e2c2 A4||
